X:1
T:Title
%%score [ ( 1 2 ) ( 3 4 ) ]
L:1/8
Q:1/4=120
M:4/4
K:D
V:1 treble nm="Midi_74"
V:2 treble 
V:3 bass nm="Midi_69"
V:4 bass 
V:1
"^Ferrier (77. 77)""^John Bacchus Dykes\n(1823-76)""^Emily Mary Shapcote\n(1828-1909)""^Jesus, holy, undefiled" F2 F2 F2 D2 | %1
w: |
w: |
w: |
w: |
w: |
w: |
 A2 B2 A4 | A2 (Bc) d2 c2 | B2 (cB) A4 || F2 F2 F2 D2 | A2 (Bc) d4 | d2 B2 A2 F2 | E2 (FE) D4 |] %8
w: |||Thou hast sent the|glo- rious * light,|Chas- ing far the|sil- ent * night.|
w: |||Warmth to give, and|pleas- ant * glow,|On each ten- der|flower be\- * low.|
w: |||Thee their ti- ny|voi- ces * praise|In the ear- ly|songs they * raise.|
w: |||And Thy Ho- ly|Spi- rit * give,|With- out whom I|can- not * live.|
w: |||All day long, in|ev- ery * way,|Teach me what to|do and * say.|
w: |||And, when Thou at|last shall * come,|Take me to Thy|heaven- ly * home.|
V:2
 F2 D2 D2 D2 | F2 (DE) F4 | C2 (DE) F2 E2 | D2 (ED) C4 || D2 D2 D2 D2 | F2 E2 F4 | B2 G2 F2 D2 | %7
w: Je- sus, ho- ly,|un- de\- * filed,|Lis- ten * to a|lit- tle * child.||||
w: Thou hast sent the|sun to * shine|O'er this * glo- rious|world of * Thine.||||
w: Now the lit- tle|birds a\- * rise,|Chirp- ing * gai- ly|in the * skies;||||
w: Thou by whom the|birds are * fed,|Give to * me my|dai- ly * bread;||||
w: Make me, Lord, o-|bed- ient, * mild,|As be\- * comes a|lit- tle * child;||||
w: Make me, Lord, in|work and * play,|Thine more * tru- ly|ev- ery * day;||||
 D2 C2 D4 |] %8
w: |
w: |
w: |
w: |
w: |
w: |
V:3
 D2 A,2 F,2 A,2 | D2 (B,C) D4 | A,2 ^G,2 A,2 A,2 | ^G,2 G,2 A,4 || A,2 A,2 A,2 A,2 | A,2 E2 D4 | %6
 D2 D2 D2 A,2 | A,2 G,2 F,4 |] %8
V:4
 D,2 D,2 D,2 F,2 | D,2 G,2 D,4 | F,2 E,2 D,2 A,,2 | E,2 E,2 A,,4 || D,2 A,,2 D,2 F,2 | %5
 D,2 C,2 B,,4 | G,,2 B,,2 D,2 F,2 | A,2 A,,2 D,4 |] %8

